brandFactory_export/2.Regular/Bacteria_2Regular.svg

<?xml version="1.0" encoding="UTF-8"?>
<svg width="24px" height="24px" viewBox="0 0 24 24" version="1.1" xmlns="http://www.w3.org/2000/svg" xmlns:xlink="http://www.w3.org/1999/xlink">
    <title>2.Regular/Bacteria_2Regular</title>
    <g id="Symbols" stroke="none" stroke-width="1" fill="none" fill-rule="evenodd">
        <g id="2.Regular/Bacteria_2Regular" fill="#5CB615" fill-rule="nonzero">
            <path d="M13.6941176,10.8638655 C14.0134454,10.8571429 15.3008403,10.7361345 15.3008403,9.15966387 C15.3008403,7.58991597 14.0168067,7.45546218 13.687395,7.4487395 C13.6470588,7.4487395 13.6,7.44537815 13.5563025,7.44537815 L13.5294118,7.44537815 C13.189916,7.4487395 11.9361345,7.56638655 11.9361345,9.14957983 C11.9361345,10.7327731 13.2033613,10.8605042 13.5428571,10.8638655 L13.6941176,10.8638655 L13.6941176,10.8638655 Z M13.7176471,6.26890756 C15.0957983,6.30252101 16.4840336,7.21008403 16.4840336,9.16302521 C16.4840336,11.1193277 15.0957983,12.0201681 13.7109244,12.0470588 L13.589916,12.0504202 L13.5260504,12.0504202 C12.1478992,12.0302521 10.7563025,11.1294118 10.7563025,9.15630252 C10.7563025,7.18319328 12.1445378,6.28571429 13.5193277,6.27226891 L13.5596639,6.27226891 L13.7176471,6.26890756 L13.7176471,6.26890756 Z M8.5210084,12.1042017 C8.69915966,12.1008403 9.41512605,12.0336134 9.41512605,11.1563025 C9.41512605,10.2823529 8.70252101,10.2084034 8.51764706,10.205042 L8.4302521,10.205042 C8.24201681,10.2084034 7.54621849,10.2722689 7.54621849,11.1529412 C7.54621849,12.0369748 8.25210084,12.1042017 8.44033613,12.107563 L8.5210084,12.107563 L8.5210084,12.1042017 Z M8.54789916,9.01848739 C9.53277311,9.04537815 10.594958,9.72436975 10.594958,11.1529412 C10.594958,12.5915966 9.52941176,13.2638655 8.54117647,13.2840336 L8.41680672,13.2840336 C7.42521008,13.2705882 6.35966387,12.594958 6.35966387,11.1495798 C6.35966387,9.76134454 7.39495798,9.02857143 8.41008403,9.02184874 L8.45378151,9.02184874 L8.54789916,9.01848739 L8.54789916,9.01848739 Z M14.0336134,16.3831933 C14.2521008,16.3058824 15.0991597,15.9226891 14.7327731,14.8470588 C14.4907563,14.1411765 14.0168067,13.989916 13.6537815,13.989916 C13.4689076,13.989916 13.3142857,14.0302521 13.2336134,14.0537815 C13.2,14.0638655 13.1596639,14.0773109 13.1226891,14.087395 C12.8941176,14.1680672 12.0638655,14.5378151 12.4302521,15.6201681 C12.6722689,16.3294118 13.1428571,16.4840336 13.502521,16.4840336 C13.687395,16.4840336 13.8453782,16.4436975 13.9260504,16.4168067 C13.9630252,16.4067227 14,16.3932773 14.0336134,16.3831933 L14.0336134,16.3831933 Z M13.6537815,12.8067227 C14.6756303,12.8067227 15.4991597,13.4285714 15.8521008,14.4672269 C16.3764706,16.0067227 15.4823529,17.1159664 14.4268908,17.4957983 L14.292437,17.5428571 C14.1176471,17.6 13.8386555,17.6672269 13.5058824,17.6672269 C12.4907563,17.6672269 11.6705882,17.0420168 11.3142857,16 C10.7865546,14.4504202 11.6806723,13.3445378 12.7495798,12.9680672 L12.8840336,12.9243697 C13.0554622,12.8705882 13.3277311,12.8067227 13.6537815,12.8067227 L13.6537815,12.8067227 Z M12.205042,18.7058824 C14.1647059,18.6655462 18.7361345,17.9260504 18.7361345,11.8386555 C18.7361345,5.74117647 14.1344538,4.97142857 12.1546218,4.92436975 C11.9764706,4.92436975 11.7714286,4.91428571 11.5630252,4.91428571 L11.4151261,4.91428571 C9.47226891,4.93445378 4.9512605,5.64369748 4.9512605,11.7882353 C4.9512605,13.8386555 5.59327731,18.6252101 11.4823529,18.7058824 L12.205042,18.7058824 Z M22.8840336,11.0722689 C23.287395,11.0722689 23.6235294,11.4084034 23.6235294,11.8117647 C23.6235294,12.2151261 23.287395,12.5512605 22.8840336,12.5512605 L20.194958,12.5512605 C20.0773109,14.7462185 19.4084034,16.3260504 18.4806723,17.4386555 L20.1647059,19.1226891 C20.4504202,19.4084034 20.4504202,19.8823529 20.1647059,20.1647059 C20.0168067,20.302521 19.8285714,20.3831933 19.6436975,20.3831933 C19.4554622,20.3831933 19.2605042,20.3058824 19.1226891,20.1647059 L17.4285714,18.4705882 C15.6941176,19.8184874 13.6067227,20.1176471 12.5512605,20.1647059 L12.5512605,22.8840336 C12.5512605,23.287395 12.2151261,23.6235294 11.8117647,23.6235294 C11.4084034,23.6235294 11.0722689,23.287395 11.0722689,22.8840336 L11.0722689,20.1747899 C9.95966387,20.1042017 7.9092437,19.8016807 6.21512605,18.4504202 L4.50084034,20.1647059 C4.36302521,20.302521 4.16470588,20.3831933 3.97647059,20.3831933 C3.79159664,20.3831933 3.60336134,20.3058824 3.45546218,20.1647059 C3.1697479,19.8789916 3.1697479,19.4084034 3.45546218,19.1226891 L5.1697479,17.4084034 C4.27226891,16.292437 3.62352941,14.7260504 3.49579832,12.5512605 L0.739495798,12.5512605 C0.336134454,12.5512605 0,12.2151261 0,11.8117647 C0,11.4084034 0.336134454,11.0722689 0.739495798,11.0722689 L3.49915966,11.0722689 C3.61680672,8.88403361 4.25882353,7.31092437 5.15294118,6.19495798 L3.45882353,4.50084034 C3.17310924,4.21512605 3.17310924,3.7512605 3.45882353,3.45882353 C3.74453782,3.1697479 4.21848739,3.1697479 4.50420168,3.45882353 L6.18823529,5.14285714 C7.90252101,3.79495798 9.97983193,3.49915966 11.0756303,3.4487395 L11.0756303,0.739495798 C11.0756303,0.336134454 11.4084034,0 11.8151261,0 C12.2184874,0 12.5546218,0.336134454 12.5546218,0.739495798 L12.5546218,3.46890756 C13.6268908,3.52941176 15.687395,3.84201681 17.4016807,5.18319328 L19.1260504,3.45882353 C19.4117647,3.1697479 19.8857143,3.1697479 20.1714286,3.45882353 C20.4571429,3.75462185 20.4571429,4.21512605 20.1714286,4.50084034 L18.4672269,6.20504202 C19.3915966,7.31764706 20.0705882,8.88403361 20.1915966,11.0722689 L22.8840336,11.0722689 Z" id="Bacteria_2Regular"></path>
        </g>
    </g>
</svg>

<svg width="24" height="24" viewBox="0 0 24 24" xmlns="http://www.w3.org/2000/svg"><path d="M13.694 10.864c.32-.007 1.607-.128 1.607-1.704 0-1.57-1.284-1.705-1.614-1.711-.04 0-.087-.004-.13-.004h-.028c-.34.004-1.593.121-1.593 1.705 0 1.583 1.267 1.71 1.607 1.714h.151zm.024-4.595c1.378.034 2.766.941 2.766 2.894 0 1.956-1.388 2.857-2.773 2.884l-.121.003h-.064c-1.378-.02-2.77-.92-2.77-2.894 0-1.973 1.389-2.87 2.763-2.884h.04l.159-.003zM8.52 12.104c.178-.003.894-.07.894-.948 0-.874-.712-.948-.897-.951H8.43c-.188.003-.884.067-.884.948 0 .884.706.951.894.955h.081v-.004zm.027-3.086c.985.027 2.047.706 2.047 2.135 0 1.439-1.066 2.11-2.054 2.131h-.124c-.992-.013-2.057-.689-2.057-2.134 0-1.389 1.035-2.121 2.05-2.128h.044l.094-.004zm5.486 7.365c.218-.077 1.065-.46.699-1.536-.242-.706-.716-.857-1.08-.857-.184 0-.339.04-.42.064-.033.01-.073.023-.11.033-.229.081-1.06.45-.693 1.533.242.71.713.864 1.073.864.184 0 .342-.04.423-.067.037-.01.074-.024.108-.034zm-.38-3.576c1.022 0 1.845.622 2.198 1.66.524 1.54-.37 2.649-1.425 3.029l-.135.047a2.572 2.572 0 01-.786.124c-1.015 0-1.835-.625-2.192-1.667-.527-1.55.367-2.655 1.436-3.032l.134-.044c.171-.053.444-.117.77-.117zm-1.449 5.899c1.96-.04 6.531-.78 6.531-6.867 0-6.098-4.602-6.868-6.581-6.915-.179 0-.384-.01-.592-.01h-.148c-1.943.02-6.464.73-6.464 6.874 0 2.05.642 6.837 6.531 6.918h.723zm10.679-7.634c.403 0 .74.336.74.74 0 .403-.337.74-.74.74h-2.689c-.118 2.194-.787 3.774-1.714 4.887l1.684 1.684a.74.74 0 010 1.042.779.779 0 01-.521.218.739.739 0 01-.521-.218l-1.694-1.694c-1.735 1.347-3.822 1.647-4.878 1.694v2.719c0 .403-.336.74-.74.74a.746.746 0 01-.739-.74v-2.71c-1.112-.07-3.163-.372-4.857-1.724l-1.714 1.715a.761.761 0 01-.525.218.74.74 0 01-.521-1.26l1.715-1.715c-.898-1.116-1.546-2.682-1.674-4.857H.739a.746.746 0 01-.739-.74c0-.403.336-.739.74-.739H3.5c.117-2.188.759-3.761 1.653-4.877L3.459 4.501a.738.738 0 011.045-1.042l1.684 1.684c1.715-1.348 3.792-1.644 4.888-1.694V.739c0-.403.332-.739.74-.739.402 0 .739.336.739.74v2.729c1.072.06 3.132.373 4.847 1.714l1.724-1.724A.738.738 0 0120.171 4.5l-1.704 1.704c.925 1.113 1.604 2.679 1.725 4.867h2.692z" fill="#5CB615" fill-rule="nonzero"/></svg>
